Newaita-dark/.places-mint/24/folder-locked.svg

<?xml version="1.0" encoding="UTF-8"?>
<svg xmlns="http://www.w3.org/2000/svg" xmlns:xlink="http://www.w3.org/1999/xlink" width="24px" height="24px" viewBox="0 0 24 24" version="1.1">
<defs>
<linearGradient id="linear0" gradientUnits="userSpaceOnUse" x1="254" y1="233.5" x2="254" y2="254.666672" gradientTransform="matrix(0.0468795,0,0,0.0468795,-0.0000028613,10.07909)">
<stop offset="0" style="stop-color:rgb(0%,0%,0%);stop-opacity:0.27451;"/>
<stop offset="1" style="stop-color:rgb(0%,0%,0%);stop-opacity:0;"/>
</linearGradient>
<radialGradient id="radial0" gradientUnits="userSpaceOnUse" cx="450.908936" cy="189.579361" fx="450.908936" fy="189.579361" r="21.166656" gradientTransform="matrix(0.000000130628,-0.0585994,-0.105479,-0.0000000761539,40.58641,47.696501)">
<stop offset="0" style="stop-color:rgb(0%,0%,0%);stop-opacity:0.313726;"/>
<stop offset="0.222222" style="stop-color:rgb(0%,0%,0%);stop-opacity:0.27451;"/>
<stop offset="1" style="stop-color:rgb(0%,0%,0%);stop-opacity:0;"/>
</radialGradient>
<radialGradient id="radial1" gradientUnits="userSpaceOnUse" cx="450.908936" cy="189.579361" fx="450.908936" fy="189.579361" r="21.166656" gradientTransform="matrix(-0.000000130628,0.0585994,0.105479,0.0000000761539,-16.771633,-5.645608)">
<stop offset="0" style="stop-color:rgb(0%,0%,0%);stop-opacity:0.313726;"/>
<stop offset="0.222222" style="stop-color:rgb(0%,0%,0%);stop-opacity:0.27451;"/>
<stop offset="1" style="stop-color:rgb(0%,0%,0%);stop-opacity:0;"/>
</radialGradient>
<radialGradient id="radial2" gradientUnits="userSpaceOnUse" cx="450.908936" cy="189.579361" fx="450.908936" fy="189.579361" r="21.166656" gradientTransform="matrix(-0.000000130628,-0.0585994,0.105479,-0.0000000761539,-16.771633,47.696501)">
<stop offset="0" style="stop-color:rgb(0%,0%,0%);stop-opacity:0.313726;"/>
<stop offset="0.222222" style="stop-color:rgb(0%,0%,0%);stop-opacity:0.27451;"/>
<stop offset="1" style="stop-color:rgb(0%,0%,0%);stop-opacity:0;"/>
</radialGradient>
<radialGradient id="radial3" gradientUnits="userSpaceOnUse" cx="450.908936" cy="189.579361" fx="450.908936" fy="189.579361" r="21.166656" gradientTransform="matrix(0.000000130628,0.0585994,-0.105479,0.0000000761539,40.586408,-5.645608)">
<stop offset="0" style="stop-color:rgb(0%,0%,0%);stop-opacity:0.313726;"/>
<stop offset="0.222222" style="stop-color:rgb(0%,0%,0%);stop-opacity:0.27451;"/>
<stop offset="1" style="stop-color:rgb(0%,0%,0%);stop-opacity:0;"/>
</radialGradient>
<linearGradient id="linear1" gradientUnits="userSpaceOnUse" x1="254" y1="-147.5" x2="254" y2="-31.083334" gradientTransform="matrix(0.0468795,0,0,0.0468795,0.000000937315,10.079086)">
<stop offset="0" style="stop-color:rgb(64.313728%,64.313728%,64.313728%);stop-opacity:0;"/>
<stop offset="1" style="stop-color:rgb(100%,100%,100%);stop-opacity:0.196078;"/>
</linearGradient>
<linearGradient id="linear2" gradientUnits="userSpaceOnUse" x1="254" y1="233.5" x2="254" y2="-105.166656" gradientTransform="matrix(0.0468795,0,0,0.0468795,-0.0000013593,10.079087)">
<stop offset="0" style="stop-color:rgb(34.509805%,34.509805%,34.509805%);stop-opacity:0;"/>
<stop offset="1" style="stop-color:rgb(98.039216%,98.039216%,98.039216%);stop-opacity:0.196078;"/>
</linearGradient>
</defs>
<g id="surface1">
<path style=" stroke:none;fill-rule:nonzero;fill:url(#linear0);" d="M 2.976562 21.027344 L 20.839844 21.027344 L 20.839844 22.019531 L 2.976562 22.019531 Z M 2.976562 21.027344 "/>
<path style=" stroke:none;fill-rule:nonzero;fill:url(#radial0);" d="M 20.839844 21.027344 L 22.824219 21.027344 L 22.824219 20.03125 L 20.839844 20.03125 Z M 20.839844 21.027344 "/>
<path style=" stroke:none;fill-rule:nonzero;fill:url(#radial1);" d="M 2.976562 21.027344 L 0.992188 21.027344 L 0.992188 22.019531 L 2.976562 22.019531 Z M 2.976562 21.027344 "/>
<path style=" stroke:none;fill-rule:nonzero;fill:url(#radial2);" d="M 2.976562 21.027344 L 0.992188 21.027344 L 0.992188 20.03125 L 2.976562 20.03125 Z M 2.976562 21.027344 "/>
<path style=" stroke:none;fill-rule:nonzero;fill:url(#radial3);" d="M 20.839844 21.027344 L 22.824219 21.027344 L 22.824219 22.019531 L 20.839844 22.019531 Z M 20.839844 21.027344 "/>
<path style=" stroke:none;fill-rule:nonzero;fill:rgb(61.176473%,80.000001%,39.607844%);fill-opacity:1;" d="M 5.457031 3.164062 L 21.582031 3.164062 C 22.128906 3.164062 22.574219 3.609375 22.574219 4.15625 L 22.574219 7.878906 C 22.574219 8.425781 22.128906 8.871094 21.582031 8.871094 L 5.457031 8.871094 C 4.910156 8.871094 4.464844 8.425781 4.464844 7.878906 L 4.464844 4.15625 C 4.464844 3.609375 4.910156 3.164062 5.457031 3.164062 Z M 5.457031 3.164062 "/>
<path style=" stroke:none;fill-rule:nonzero;fill:url(#linear1);" d="M 5.457031 3.164062 L 21.582031 3.164062 C 22.128906 3.164062 22.574219 3.609375 22.574219 4.15625 L 22.574219 7.878906 C 22.574219 8.425781 22.128906 8.871094 21.582031 8.871094 L 5.457031 8.871094 C 4.910156 8.871094 4.464844 8.425781 4.464844 7.878906 L 4.464844 4.15625 C 4.464844 3.609375 4.910156 3.164062 5.457031 3.164062 Z M 5.457031 3.164062 "/>
<path style=" stroke:none;fill-rule:nonzero;fill:rgb(100%,100%,100%);fill-opacity:0.392157;" d="M 5.457031 3.226562 C 4.90625 3.226562 4.464844 3.667969 4.464844 4.21875 L 4.464844 4.34375 C 4.464844 3.792969 4.90625 3.351562 5.457031 3.351562 L 21.582031 3.351562 C 22.132812 3.351562 22.574219 3.792969 22.574219 4.34375 L 22.574219 4.21875 C 22.574219 3.667969 22.132812 3.226562 21.582031 3.226562 Z M 5.457031 3.226562 "/>
<path style=" stroke:none;fill-rule:nonzero;fill:rgb(12.941177%,12.941177%,12.941177%);fill-opacity:1;" d="M 5.457031 3.09375 C 4.871094 3.09375 4.394531 3.570312 4.394531 4.15625 L 4.394531 7.878906 C 4.394531 8.464844 4.871094 8.941406 5.457031 8.941406 L 21.582031 8.941406 C 22.167969 8.941406 22.644531 8.464844 22.644531 7.878906 L 22.644531 4.15625 C 22.644531 3.570312 22.167969 3.09375 21.582031 3.09375 Z M 5.457031 3.234375 L 21.582031 3.234375 C 22.09375 3.234375 22.503906 3.644531 22.503906 4.15625 L 22.503906 7.878906 C 22.503906 8.390625 22.09375 8.800781 21.582031 8.800781 L 5.457031 8.800781 C 4.945312 8.800781 4.535156 8.390625 4.535156 7.878906 L 4.535156 4.15625 C 4.535156 3.644531 4.945312 3.234375 5.457031 3.234375 Z M 5.457031 3.234375 "/>
<path style=" stroke:none;fill-rule:nonzero;fill:rgb(68.235296%,83.529413%,50.588238%);fill-opacity:1;" d="M 1.984375 5.148438 C 1.433594 5.148438 0.992188 5.589844 0.992188 6.140625 L 0.992188 20.03125 C 0.992188 20.582031 1.433594 21.027344 1.984375 21.027344 L 21.832031 21.027344 C 22.378906 21.027344 22.824219 20.582031 22.824219 20.03125 L 22.824219 7.628906 L 9.425781 7.628906 C 8.878906 7.628906 8.433594 7.1875 8.433594 6.636719 L 8.433594 5.148438 Z M 1.984375 5.148438 "/>
<path style=" stroke:none;fill-rule:nonzero;fill:url(#linear2);" d="M 1.984375 5.148438 C 1.433594 5.148438 0.992188 5.589844 0.992188 6.140625 L 0.992188 20.03125 C 0.992188 20.582031 1.433594 21.027344 1.984375 21.027344 L 21.832031 21.027344 C 22.378906 21.027344 22.824219 20.582031 22.824219 20.03125 L 22.824219 7.628906 L 9.425781 7.628906 C 8.878906 7.628906 8.433594 7.1875 8.433594 6.636719 L 8.433594 5.148438 Z M 1.984375 5.148438 "/>
<path style=" stroke:none;fill-rule:nonzero;fill:rgb(0%,0%,0%);fill-opacity:0.196078;" d="M 1.984375 21.027344 C 1.433594 21.027344 0.992188 20.582031 0.992188 20.03125 L 0.992188 19.910156 C 0.992188 20.457031 1.433594 20.902344 1.984375 20.902344 L 21.832031 20.902344 C 22.378906 20.902344 22.824219 20.457031 22.824219 19.910156 L 22.824219 20.03125 C 22.824219 20.582031 22.378906 21.027344 21.832031 21.027344 Z M 1.984375 21.027344 "/>
<path style=" stroke:none;fill-rule:nonzero;fill:rgb(100%,100%,100%);fill-opacity:0.392157;" d="M 1.984375 5.210938 C 1.433594 5.210938 0.992188 5.652344 0.992188 6.203125 L 0.992188 6.328125 C 0.992188 5.777344 1.433594 5.335938 1.984375 5.335938 L 8.433594 5.335938 L 8.433594 5.210938 Z M 1.984375 5.210938 "/>
<path style=" stroke:none;fill-rule:nonzero;fill:rgb(100%,100%,100%);fill-opacity:0.392157;" d="M 9.363281 7.753906 C 8.816406 7.753906 8.371094 7.3125 8.371094 6.761719 L 8.371094 6.636719 C 8.371094 7.1875 8.816406 7.628906 9.363281 7.628906 L 22.824219 7.628906 L 22.824219 7.753906 Z M 9.363281 7.753906 "/>
<path style=" stroke:none;fill-rule:nonzero;fill:rgb(12.941177%,12.941177%,12.941177%);fill-opacity:1;" d="M 1.984375 5.078125 C 1.398438 5.078125 0.921875 5.554688 0.921875 6.140625 L 0.921875 20.03125 C 0.921875 20.621094 1.398438 21.097656 1.984375 21.097656 L 21.832031 21.097656 C 22.417969 21.097656 22.894531 20.621094 22.894531 20.03125 L 22.894531 7.488281 L 9.425781 7.488281 C 8.914062 7.488281 8.503906 7.078125 8.503906 6.566406 L 8.503906 5.078125 Z M 1.984375 5.21875 L 8.363281 5.21875 L 8.363281 6.566406 C 8.363281 7.15625 8.839844 7.628906 9.425781 7.628906 L 22.753906 7.628906 L 22.753906 20.03125 C 22.753906 20.546875 22.34375 20.957031 21.832031 20.957031 L 1.984375 20.957031 C 1.472656 20.957031 1.0625 20.546875 1.0625 20.03125 L 1.0625 6.140625 C 1.0625 5.628906 1.472656 5.21875 1.984375 5.21875 Z M 1.984375 5.21875 "/>
<path style=" stroke:none;fill-rule:nonzero;fill:rgb(54.509807%,76.47059%,29.019609%);fill-opacity:1;" d="M 11.90625 9.613281 C 10.53125 9.613281 9.425781 10.71875 9.425781 12.09375 L 9.425781 13.582031 L 8.683594 13.582031 C 8.546875 13.582031 8.433594 13.695312 8.433594 13.832031 L 8.433594 17.304688 C 8.433594 17.441406 8.546875 17.550781 8.683594 17.550781 L 15.132812 17.550781 C 15.269531 17.550781 15.378906 17.441406 15.378906 17.304688 L 15.378906 13.832031 C 15.378906 13.695312 15.269531 13.582031 15.132812 13.582031 L 14.386719 13.582031 L 14.386719 12.09375 C 14.386719 10.71875 13.28125 9.613281 11.90625 9.613281 Z M 11.90625 10.605469 C 12.730469 10.605469 13.394531 11.269531 13.394531 12.09375 L 13.394531 13.582031 L 10.417969 13.582031 L 10.417969 12.09375 C 10.417969 11.269531 11.082031 10.605469 11.90625 10.605469 Z M 11.90625 14.328125 C 12.320312 14.328125 12.652344 14.660156 12.652344 15.070312 C 12.652344 15.292969 12.554688 15.492188 12.402344 15.628906 L 12.402344 16.558594 C 12.402344 16.699219 12.292969 16.808594 12.15625 16.808594 L 11.660156 16.808594 C 11.523438 16.808594 11.410156 16.699219 11.410156 16.558594 L 11.410156 15.628906 C 11.257812 15.492188 11.164062 15.292969 11.164062 15.070312 C 11.164062 14.660156 11.496094 14.328125 11.90625 14.328125 Z M 11.90625 14.328125 "/>
<path style=" stroke:none;fill-rule:nonzero;fill:rgb(0%,0%,0%);fill-opacity:0.235294;" d="M 11.90625 9.613281 C 10.53125 9.613281 9.425781 10.71875 9.425781 12.09375 L 9.425781 12.28125 C 9.425781 10.90625 10.53125 9.800781 11.90625 9.800781 C 13.28125 9.800781 14.386719 10.90625 14.386719 12.28125 L 14.386719 12.09375 C 14.386719 10.71875 13.28125 9.613281 11.90625 9.613281 Z M 8.683594 13.582031 C 8.546875 13.582031 8.433594 13.695312 8.433594 13.832031 L 8.433594 14.015625 C 8.433594 13.878906 8.546875 13.769531 8.683594 13.769531 L 9.425781 13.769531 L 9.425781 13.582031 Z M 10.417969 13.582031 L 10.417969 13.769531 L 13.394531 13.769531 L 13.394531 13.582031 Z M 14.386719 13.582031 L 14.386719 13.769531 L 15.132812 13.769531 C 15.269531 13.769531 15.378906 13.878906 15.378906 14.015625 L 15.378906 13.832031 C 15.378906 13.695312 15.269531 13.582031 15.132812 13.582031 Z M 11.167969 15.164062 C 11.164062 15.195312 11.164062 15.226562 11.164062 15.257812 C 11.164062 15.480469 11.257812 15.675781 11.410156 15.8125 L 11.410156 15.628906 C 11.28125 15.511719 11.191406 15.347656 11.167969 15.164062 Z M 12.644531 15.164062 C 12.621094 15.347656 12.535156 15.511719 12.402344 15.628906 L 12.402344 15.8125 C 12.554688 15.675781 12.652344 15.480469 12.652344 15.257812 C 12.652344 15.226562 12.648438 15.195312 12.644531 15.164062 Z M 11.410156 16.558594 L 11.410156 16.746094 C 11.410156 16.882812 11.523438 16.996094 11.660156 16.996094 L 12.15625 16.996094 C 12.292969 16.996094 12.402344 16.882812 12.402344 16.746094 L 12.402344 16.558594 C 12.402344 16.699219 12.292969 16.808594 12.15625 16.808594 L 11.660156 16.808594 C 11.523438 16.808594 11.410156 16.699219 11.410156 16.558594 Z M 11.410156 16.558594 "/>
<path style=" stroke:none;fill-rule:nonzero;fill:rgb(100%,100%,100%);fill-opacity:0.392157;" d="M 11.90625 10.609375 C 11.082031 10.609375 10.417969 11.273438 10.417969 12.097656 L 10.417969 12.285156 C 10.417969 11.460938 11.082031 10.796875 11.90625 10.796875 C 12.730469 10.796875 13.394531 11.460938 13.394531 12.285156 L 13.394531 12.097656 C 13.394531 11.273438 12.730469 10.609375 11.90625 10.609375 Z M 11.90625 14.332031 C 11.496094 14.332031 11.164062 14.664062 11.164062 15.074219 C 11.164062 15.105469 11.164062 15.136719 11.167969 15.167969 C 11.214844 14.800781 11.527344 14.515625 11.90625 14.515625 C 12.289062 14.515625 12.601562 14.800781 12.644531 15.167969 C 12.648438 15.136719 12.652344 15.105469 12.652344 15.074219 C 12.652344 14.664062 12.320312 14.332031 11.90625 14.332031 Z M 8.433594 17.308594 L 8.433594 17.492188 C 8.433594 17.628906 8.546875 17.742188 8.683594 17.742188 L 15.132812 17.742188 C 15.269531 17.742188 15.378906 17.628906 15.378906 17.492188 L 15.378906 17.308594 C 15.378906 17.445312 15.269531 17.554688 15.132812 17.554688 L 8.683594 17.554688 C 8.546875 17.554688 8.433594 17.445312 8.433594 17.308594 Z M 8.433594 17.308594 "/>
<path style="fill:none;stroke-width:3;stroke-linecap:round;stroke-linejoin:round;stroke:rgb(12.941177%,12.941177%,12.941177%);stroke-opacity:1;stroke-miterlimit:4;" d="M 253.975747 -9.936249 C 224.645214 -9.936249 201.064133 13.644832 201.064133 42.975365 L 201.064133 74.722333 L 185.232311 74.722333 C 182.315923 74.722333 179.899487 77.138769 179.899487 80.055157 L 179.899487 154.131416 C 179.899487 157.047805 182.315923 159.380915 185.232311 159.380915 L 322.802507 159.380915 C 325.718895 159.380915 328.052006 157.047805 328.052006 154.131416 L 328.052006 80.055157 C 328.052006 77.138769 325.718895 74.722333 322.802507 74.722333 L 306.88736 74.722333 L 306.88736 42.975365 C 306.88736 13.644832 283.306279 -9.936249 253.975747 -9.936249 Z M 253.975747 11.228396 C 271.557401 11.228396 285.722715 25.39371 285.722715 42.975365 L 285.722715 74.722333 L 222.228778 74.722333 L 222.228778 42.975365 C 222.228778 25.39371 236.394092 11.228396 253.975747 11.228396 Z M 253.975747 90.63748 C 262.808236 90.63748 269.890893 97.720137 269.890893 106.469301 C 269.890893 111.218848 267.807759 115.468442 264.558069 118.38483 L 264.558069 138.21627 C 264.558069 141.215983 262.224959 143.549094 259.308571 143.549094 L 248.726248 143.549094 C 245.80986 143.549094 243.393424 141.215983 243.393424 138.21627 L 243.393424 118.38483 C 240.143734 115.468442 238.143925 111.218848 238.143925 106.469301 C 238.143925 97.720137 245.226582 90.63748 253.975747 90.63748 Z M 253.975747 90.63748 " transform="matrix(0.0468795,0,0,0.0468795,0,10.079087)"/>
</g>
</svg>

<svg xmlns="http://www.w3.org/2000/svg" width="24" height="24"><defs><linearGradient id="a" gradientUnits="userSpaceOnUse" x1="254" y1="233.5" x2="254" y2="254.667" gradientTransform="matrix(.04688 0 0 .04688 0 10.08)"><stop offset="0" stop-opacity=".275"/><stop offset="1" stop-opacity="0"/></linearGradient><radialGradient id="b" gradientUnits="userSpaceOnUse" cx="450.909" cy="189.579" fx="450.909" fy="189.579" r="21.167" gradientTransform="matrix(0 -.0586 -.10548 0 40.586 47.697)"><stop offset="0" stop-opacity=".314"/><stop offset=".222" stop-opacity=".275"/><stop offset="1" stop-opacity="0"/></radialGradient><radialGradient id="c" gradientUnits="userSpaceOnUse" cx="450.909" cy="189.579" fx="450.909" fy="189.579" r="21.167" gradientTransform="matrix(0 .0586 .10548 0 -16.772 -5.646)"><stop offset="0" stop-opacity=".314"/><stop offset=".222" stop-opacity=".275"/><stop offset="1" stop-opacity="0"/></radialGradient><radialGradient id="d" gradientUnits="userSpaceOnUse" cx="450.909" cy="189.579" fx="450.909" fy="189.579" r="21.167" gradientTransform="matrix(0 -.0586 .10548 0 -16.772 47.697)"><stop offset="0" stop-opacity=".314"/><stop offset=".222" stop-opacity=".275"/><stop offset="1" stop-opacity="0"/></radialGradient><radialGradient id="e" gradientUnits="userSpaceOnUse" cx="450.909" cy="189.579" fx="450.909" fy="189.579" r="21.167" gradientTransform="matrix(0 .0586 -.10548 0 40.586 -5.646)"><stop offset="0" stop-opacity=".314"/><stop offset=".222" stop-opacity=".275"/><stop offset="1" stop-opacity="0"/></radialGradient><linearGradient id="f" gradientUnits="userSpaceOnUse" x1="254" y1="-147.5" x2="254" y2="-31.083" gradientTransform="matrix(.04688 0 0 .04688 0 10.08)"><stop offset="0" stop-color="#a4a4a4" stop-opacity="0"/><stop offset="1" stop-color="#fff" stop-opacity=".196"/></linearGradient><linearGradient id="g" gradientUnits="userSpaceOnUse" x1="254" y1="233.5" x2="254" y2="-105.167" gradientTransform="matrix(.04688 0 0 .04688 0 10.08)"><stop offset="0" stop-color="#585858" stop-opacity="0"/><stop offset="1" stop-color="#fafafa" stop-opacity=".196"/></linearGradient><linearGradient id="h" gradientUnits="userSpaceOnUse" x1="960" y1="255.118" x2="960" y2="1695.118" gradientTransform="matrix(.0124 0 0 .0124 0 0)"><stop offset="0" stop-color="#a4a4a4" stop-opacity="0"/><stop offset="1" stop-color="#fff" stop-opacity=".196"/></linearGradient></defs><path d="M2.977 21.027H20.84v.993H2.977zm0 0" fill="url(#a)"/><path d="M20.84 21.027h1.984v-.996H20.84zm0 0" fill="url(#b)"/><path d="M2.977 21.027H.992v.993h1.985zm0 0" fill="url(#c)"/><path d="M2.977 21.027H.992v-.996h1.985zm0 0" fill="url(#d)"/><path d="M20.84 21.027h1.984v.993H20.84zm0 0" fill="url(#e)"/><path d="M5.457 3.164h16.125c.547 0 .992.445.992.992V7.88a.994.994 0 0 1-.992.992H5.457a.994.994 0 0 1-.992-.992V4.156c0-.547.445-.992.992-.992zm0 0" fill="#7cb342"/><path d="M5.457 3.164h16.125c.547 0 .992.445.992.992V7.88a.994.994 0 0 1-.992.992H5.457a.994.994 0 0 1-.992-.992V4.156c0-.547.445-.992.992-.992zm0 0" fill="url(#f)"/><path d="M5.457 3.164a.989.989 0 0 0-.992.992v.125c0-.55.441-.992.992-.992h16.125c.55 0 .992.441.992.992v-.125a.989.989 0 0 0-.992-.992zm0 0" fill="#e6e6e6" fill-opacity=".588"/><path d="M5.457 3.094c-.586 0-1.062.476-1.062 1.062V7.88c0 .586.476 1.062 1.062 1.062h16.125c.586 0 1.063-.476 1.063-1.062V4.156c0-.586-.477-1.062-1.063-1.062zm0 .14h16.125c.512 0 .922.41.922.922V7.88c0 .512-.41.922-.922.922H5.457a.919.919 0 0 1-.922-.922V4.156c0-.511.41-.922.922-.922zm0 0" fill="#212121"/><path d="M1.984 5.148a.989.989 0 0 0-.992.993v13.89c0 .551.442.996.992.996h19.848a.994.994 0 0 0 .992-.996V7.63H9.426a.991.991 0 0 1-.992-.992V5.148zm0 0" fill="#9ccc65"/><path d="M1.984 5.148a.989.989 0 0 0-.992.993v13.89c0 .551.442.996.992.996h19.848a.994.994 0 0 0 .992-.996V7.63H9.426a.991.991 0 0 1-.992-.992V5.148zm0 0" fill="url(#g)"/><path d="M1.984 21.027a.992.992 0 0 1-.992-.996v-.12c0 .546.442.991.992.991h19.848a.994.994 0 0 0 .992-.992v.121c0 .551-.445.996-.992.996zm0 0" fill-opacity=".196"/><path d="M1.984 5.148a.989.989 0 0 0-.992.993v.125c0-.551.442-.993.992-.993h6.45v-.125zm0 0M9.363 7.691a.991.991 0 0 1-.992-.992v-.125c0 .551.445.996.992.992h13.461v.125zm0 0" fill="#e6e6e6" fill-opacity=".937"/><path d="M1.984 5.078c-.586 0-1.062.477-1.062 1.063v13.89c0 .59.476 1.067 1.062 1.067h19.848c.586 0 1.063-.477 1.063-1.067V7.488H9.425a.919.919 0 0 1-.921-.922V5.078zm0 .14h6.38v1.348c0 .59.476 1.063 1.062 1.063h13.328V20.03a.92.92 0 0 1-.922.926H1.984a.92.92 0 0 1-.921-.926V6.141c0-.512.41-.922.921-.922zm0 0" fill="#212121"/><path d="M11.906 9.613a2.474 2.474 0 0 0-2.48 2.48v1.489h-.742a.252.252 0 0 0-.25.25v3.473c0 .136.113.246.25.246h6.449c.137 0 .246-.11.246-.246v-3.473c0-.137-.11-.25-.246-.25h-.746v-1.488a2.474 2.474 0 0 0-2.48-2.48zm0 .992c.824 0 1.489.665 1.489 1.489v1.488h-2.977v-1.488c0-.824.664-1.489 1.488-1.489zm0 0" fill="#7cb342"/><path d="M11.906 9.613a2.474 2.474 0 0 0-2.48 2.48v1.489h-.742a.252.252 0 0 0-.25.25v3.473c0 .136.113.246.25.246h6.449c.137 0 .246-.11.246-.246v-3.473c0-.137-.11-.25-.246-.25h-.746v-1.488a2.474 2.474 0 0 0-2.48-2.48zm0 .992c.824 0 1.489.665 1.489 1.489v1.488h-2.977v-1.488c0-.824.664-1.489 1.488-1.489zm0 0" fill="url(#h)"/><path d="M11.906 9.543c-1.41 0-2.55 1.14-2.55 2.55v1.419h-.672a.322.322 0 0 0-.32.32v3.473c0 .175.144.316.32.316h6.449c.176 0 .316-.14.316-.316v-3.473c0-.176-.14-.32-.316-.32h-.676v-1.418c0-1.41-1.137-2.551-2.55-2.551zm0 .14a2.404 2.404 0 0 1 2.41 2.41v1.489c0 .04.032.07.07.07h.747c.097 0 .176.078.176.18v3.473a.175.175 0 0 1-.176.175h-6.45a.176.176 0 0 1-.18-.175v-3.473c0-.102.079-.18.18-.18h.743a.07.07 0 0 0 .07-.07v-1.488a2.404 2.404 0 0 1 2.41-2.41zm0 .852c-.86 0-1.558.7-1.558 1.559v1.488c0 .04.03.07.07.07h2.977a.07.07 0 0 0 .07-.07v-1.488c0-.86-.695-1.559-1.559-1.559zm0 .14c.79 0 1.418.634 1.418 1.419v1.418h-2.836v-1.418c0-.785.633-1.418 1.418-1.418zm0 0" fill="#212121"/></svg>
